icons/actions/24/draw-halfcircle3.svg

<svg version="1.1" viewBox="0 0 24 24" xmlns="http://www.w3.org/2000/svg">
    <defs>
        <style type="text/css" id="current-color-scheme">.ColorScheme-Text {
        color:#232629;
      }</style>
    </defs>
    <path class="ColorScheme-Text" d="m12 4c-4.432 0-8 3.568-8 8v1h16v-1c0-4.432-3.568-8-8-8zm0 1c3.878 0 7 3.122 7 7h-14c0-3.878 3.122-7 7-7z" fill="currentColor"/>
    <path d="m4.4888636 12.127197c0.09977-1.550773 0.498655-2.8733597 1.221301-4.0494427 2.310901-3.760918 7.0274314-4.791501 10.535892-2.30214 1.963415 1.393103 3.210141 3.721468 3.339742 6.2372457l0.02307 0.447821h-15.141459z" class="ColorScheme-Text" fill="currentColor" fill-opacity=".50196078"/>
</svg>

<svg xmlns="http://www.w3.org/2000/svg" viewBox="0 0 24 24">
  <defs id="defs3051">
    <style type="text/css" id="current-color-scheme">
      .ColorScheme-Text {
        color:#232629;
      }
      </style>
  </defs>
 <path style="fill:currentColor;fill-opacity:1;stroke:none" 
     d="M 12 4 C 7.568 4 4 7.568 4 12 L 4 13 L 20 13 L 20 12 C 20 7.568 16.432 4 12 4 z M 12 5 C 15.878 5 19 8.122 19 12 L 5 12 C 5 8.122 8.122 5 12 5 z "
     class="ColorScheme-Text"
     />
</svg>
